!!!!SEGMENT: pl-wtm--1125-3623--001-001_rozycki-ludomir--deux-preludes-et-deux-nocturnes-op-3-prelude-i.krn
!!!cenid: 19xx:133
!!!COM: Różycki, Ludomir
!!!COM-rismID: pe50045573
!!!CDT: 1883-1953
!!!CNT: Polish
!!!GTL: Deux Préludes et deux Nocturnes op. 3
!!!OTL: Prélude I.
!!!OMV: 001
!!!PDT: 1924
!!!AGN: Secular; Prelude
!!!YEC: Copyright 2022 Narodowy Instytut Fryderyka Chopina (https://polishscores.org)
!!!YEM: License CC-BY-4.0 (https://creativecommons.org/licenses/by/4.0)
!!!SMS-siglum: PL-Wtm
!!!SMS-shelfmark: 1125 3623
!!!SMS-variant:
!!!SMS-altvar:
!!!SMS-shelfwork: 001-001 G
!!!NIFC-rismSourceID: 1001192241
!!!NIFC-rismChildID: 1001192241
!!!NIFC-islandoraID: pl-wtm:72722
!!!URL-pdf-islandora: https://repozytorium.nifc.pl/islandora/object/pl-wtm%3A72722/datastream/PDF/view
!!!URL-scan: https://polish.musicsources.pl/pl/lokalizacje/galeria/druki-muzyczne/18456/3 @EN{Scan on Polish Music Sources Website} @PL{Skany w portalu Dziedzictwo Muzyki Polskiej w otwartym dostępie}
!!!IIIF:
!!!ONB-nifc:
!!!OMD: Moderato.
!!!AIN: 1 piano
!!!key: B
**kern	**fing	**kern	**fing	**dynam
*part1	*part1	*part1	*part1	*part1
*staff2	*staff2	*staff1	*staff1	*
*ICklav	*	*ICklav	*	*
*Ipiano	*	*Ipiano	*	*
*I"PIANO.	*	*I"PIANO.	*	*
*clefF4	*	*clefG2	*	*
*k[f#c#g#d#a#]	*	*k[f#c#g#d#a#]	*	*
*B:	*	*B:	*	*
*M2/4	*	*M2/4	*	*
=1	=1	=1	=1	=1
*	*	*^	*	*
*	*	*	*	*	*^
*ped	*	*	*	*	*	*
!	!	!	!	!	!LO:DY:b:rj	!LO:DY:b=2:rj
4G#\ 4B 4d# 4g#	.	(4bb/	8b\L 8dd# 8ff#	5	p >	pp
.	.	.	8b\ 8dd# 8ff#	.	.	.
4F#\ 4B 4d# 4g#	.	4aa#/	8b\ 8dd#	5	.	.
*Xped	*	*	*	*	*	*
.	.	.	8b\J 8dd#	.	.	.
=2	=2	=2	=2	=2	=2	=2
*ped	*	*	*	*	*	*
4G#\ 4B 4d# 4g#	.	4gg#/)	8b\L 8dd#	4	.	.
.	.	.	8b\ 8dd#	.	]	.
4F#\ 4B 4d# 4g#	.	(16dd#/LL	8b\	2	<	.
.	.	16ee/J	.	3	.	.
*Xped	*	*	*	*	*	*
.	.	8ff#/J	8b\J 8dd#	4	[	.
*	*	*	*	*	*v	*v
=3	=3	=3	=3	=3	=3
*ped	*	*	*	*	*
4G#\ 4B 4d# 4g#	.	4bb/	8b\L 8dd# 8ff#	.	>
.	.	.	8b\ 8dd# 8ff#	.	.
4F#\ 4B 4d# 4g#	.	4aa#/	8b\ 8dd#	.	.
*Xped	*	*	*	*	*
.	.	.	8b\J 8dd#	.	.
=4	=4	=4	=4	=4	=4
*ped	*	*	*	*	*
4G#\ 4B 4d# 4g#	.	2gg#/)	8b\L 8dd#	.	]
.	.	.	8b\ 8dd#	.	.
4F#\ 4B 4d# 4g#	.	.	8b\ 8dd#	.	.
*Xped	*	*	*	*	*
.	.	.	8b\J 8dd#	.	.
=5	=5	=5	=5	=5	=5
*	*below	*	*	*	*
(4E\ 4A# 4c#	2 3 5	(4ff#/	8g#\L 8a# 8cc#	4	.
.	.	.	8g#\ 8a# 8cc#	.	.
4A#\) 4c# 4f#	1 2 3	4gg#/	8g#\ 8a# 8cc#	5	.
.	.	.	8g#\J 8a# 8cc#	.	.
!!LO:LB:g=original
=6	=6	=6	=6	=6	=6
(4D#\ 4F# 4B	2 4 5	4ff#/)	8g#\L 8b	4	.
.	.	.	8g#\ 8b	.	.
4F#\) 4B 4f#	1 2 4	(16dd#/LL	8b\	3	.
.	.	16ee/J	.	4	.
.	.	8ff#/J	8a#\J 8dd#	5	.
=7	=7	=7	=7	=7	=7
(4E\ 4A# 4c#	.	4ff#/	8g#\L 8a# 8cc#	.	.
.	.	.	8g#\ 8a# 8cc#	.	.
4A#\) 4c# 4f#	.	4gg#/	8g#\ 8a# 8cc#	.	.
.	.	.	8g#\J 8a# 8cc#	.	.
=8	=8	=8	=8	=8	=8
(4D#\ 4F# 4B	.	2ff#/)	8g#\L 8b	.	.
.	.	.	8g#\ 8b	.	.
4F#\) 4B 4f#	.	.	8g#\ 8b	.	.
.	.	.	8g#\J 8b	.	.
=9	=9	=9	=9	=9	=9
(4E\ 4A# 4c#	.	(4ff#/	8g#\L 8a# 8cc#	.	.
.	.	.	8g#\ 8a# 8cc#	.	.
4A#\) 4c# 4f#	.	4gg#/	8g#\ 8a# 8cc#	.	<
.	.	.	8g#\J 8a# 8cc#	.	.
=10	=10	=10	=10	=10	=10
(4D#\ 4F# 4B	.	4ff#/)	8g#\L 8b	.	.
.	.	.	8g#\ 8b	.	.
4F#\) 4B 4f#	.	(16dd#/LL	8b\	.	.
.	.	16ee/J	.	.	.
.	.	8ff#/J	8a#\J 8dd#	.	.
!!LO:LB:g=original
=11	=11	=11	=11	=11	=11
(4C#\ 4F# 4A#	.	4ff#/	8g#\L 8a# 8cc#	.	.
.	.	.	8g#\ 8a# 8cc#	.	.
4F#\) 4A# 4e	.	4gg#/	8g#\ 8a# 8cc#	.	.
.	.	.	8g#\J 8a# 8cc#	.	.
=12	=12	=12	=12	=12	=12
(4BB\ 4F# 4An	.	2ff#/)	8b\L 8cc# 8dd#	.	<
.	.	.	8b\ 8cc# 8dd#	.	.
4F#\) 4A 4d#	.	.	8an\ 8cc# 8dd#	.	.
.	.	.	8a\J 8cc# 8dd#	.	[
=13	=13	=13	=13	=13	=13
*ped	*	*	*	*	*
!	!	!	!	!	!LO:DY:t=più f
(4EE:/ 4BB: 4E:	.	(4ddd#:/	8b:\L 8ee: 8gg#:	5	f
.	.	.	8b\ 8ee 8gg#	.	.
4E\) 4G# 4B 4e	.	4ccc#/	8b\ 8ee 8gg#	.	.
*Xped	*	*	*	*	*
.	.	.	8b\J 8ee 8gg#	.	.
=14	=14	=14	=14	=14	=14
*ped	*	*	*	*	*
4CC#:/ 4BB: 4E:	.	4bb/)	8g#\L 8ee	.	.
.	.	.	8g#\ 8ee	.	.
4C#:\ 4G#: 4B: 4e:	.	(16bb/LL	8g#\ 8ee	.	.
*Xped	*	*	*	*	*
.	.	16aa#/J	.	.	.
.	.	8gg#/J	8b\J 8ee	.	.
=15	=15	=15	=15	=15	=15
*^	*	*	*	*	*
(4f#~:/	4DD#:\ 4F#:	.	4ff#/	8a#\L 8dd#	.	.
.	.	.	.	8a#\ 8dd#	.	.
4e~:/	4FF#:\ 4A#:	.	4cc#/	8c#\ 8f# 8a#	.	.
.	.	.	.	8c#\J 8f# 8a#	.	.
=16	=16	=16	=16	=16	=16	=16
4d#~:/	4GG#:\ 4B:	.	2b/)	8d#\L 8g#	.	.
.	.	.	.	8d#\ 8g#	.	.
16d#/LL	4r	.	.	8d#\ 8g#	.	.
16c#/J	.	.	.	.	.	.
8B/J)	.	.	.	8d#\J 8g#	.	.
*v	*v	*	*	*	*	*
!!LO:LB:g=original
=17	=17	=17	=17	=17	=17
*ped	*	*	*	*	*
4EE/ 4Gn	.	(4b/	8B\L 8e 8gn	.	<
*Xped	*	*	*	*	*
.	.	.	8B\ 8e 8g	.	.
*ped	*	*	*	*	*
4CC#/ 4E	.	4ee/	8e\ 8gn 8b	.	.
*Xped	*	*	*	*	*
.	.	.	8e\J 8g 8b	.	[
=18	=18	=18	=18	=18	=18
*ped	*	*	*	*	*
4DD#/ 4F#	.	4dd#/	8d#X\L 8g#X 8b	.	.
.	.	.	8d#\ 8g# 8b	.	.
4D#\ 4F# 4B	.	16dd#/LL	8d#\ 8g#	.	.
.	.	16cc#/J	.	.	.
*Xped	*	*	*	*	*
.	.	8b/J)	8d#\J 8f#	.	.
=19	=19	=19	=19	=19	=19
*ped	*	*	*	*	*
4EE:/ 4G#X:	.	(4b/	8B\L 8e 8g#X	.	.
.	.	.	8B\J 8e 8g#	.	.
*ped	*	*	*	*	*
4CCn:/ 4GGn: 4E:	.	4ee/	8e\L 8b-X 8ddn	.	<
.	.	.	8e\J 8b- 8dd	.	.
=20	=20	=20	=20	=20	=20
*ped	*	*	*	*	*
4FFF#:/ 4CC#: 4AA#:	.	2gg#/)	8g#\L 8a# 8ee	.	.
.	.	.	8g#\ 8a# 8ee	.	.
!LO:TX:a:i:t=rall.	!	!	!	!	!
4FF#:\ 4C#: 4A#:	.	.	8g#\ 8a# 8ee	.	.
*Xped	*	*	*	*	*
.	.	.	8g#\J 8a# 8ee	.	[
=21	=21	=21	=21	=21	=21
*	*	*	*	*	*^
*ped	*	*	*	*	*	*
!	!	!LO:TX:a:B:t=Tempo I.	!	!	!LO:DY:b	!LO:DY:b=2
4G#\ 4B 4d# 4g#	.	(4bb/	8b\L 8dd# 8ff#	.	p	pp
.	.	.	8b\ 8dd# 8ff#	.	>	.
4F#\ 4B 4d# 4g#	.	4aa#/	8b\ 8dd#	.	.	.
*Xped	*	*	*	*	*	*
.	.	.	8b\J 8dd#	.	.	.
=22	=22	=22	=22	=22	=22	=22
*ped	*	*	*	*	*	*
4G#\ 4B 4d# 4g#	.	4gg#/)	8b\L 8dd#	.	]	.
.	.	.	8b\ 8dd#	.	.	.
4F#\ 4B 4d# 4g#	.	(16dd#/LL	8b\	.	.	.
.	.	16ee/J	.	.	.	.
*Xped	*	*	*	*	*	*
.	.	8ff#/J	8b\J 8dd#	.	.	.
*	*	*	*	*	*v	*v
!!LO:LB:g=original
=23	=23	=23	=23	=23	=23
*ped	*	*	*	*	*
4G#\ 4B 4d# 4g#	.	4bb/	8b\L 8dd# 8ff#	.	.
.	.	.	8b\ 8dd# 8ff#	.	.
4F#\ 4B 4d# 4g#	.	4aa#/	8b\ 8dd#	.	.
*Xped	*	*	*	*	*
.	.	.	8b\J 8dd#	.	.
=24	=24	=24	=24	=24	=24
*ped	*	*	*	*	*
4G#\ 4B 4d# 4g#	.	2gg#/)	8b\L 8dd#	.	.
.	.	.	8b\ 8dd#	.	.
4F#\ 4B 4d# 4g#	.	.	8b\ 8dd#	.	.
*Xped	*	*	*	*	*
.	.	.	8b\J 8dd#	.	.
=25	=25	=25	=25	=25	=25
*ped	*	*	*	*	*
(4E\ 4A# 4c#	.	(4ff#/	8g#\L 8a# 8cc#	.	.
.	.	.	8g#\ 8a# 8cc#	.	.
4A#\) 4c# 4f#	.	4gg#/	8g#\ 8a# 8cc#	.	.
*Xped	*	*	*	*	*
.	.	.	8g#\J 8a# 8cc#	.	.
=26	=26	=26	=26	=26	=26
*ped	*	*	*	*	*
(4D#\ 4F# 4B	.	4ff#/)	8g#\L 8b	.	.
.	.	.	8g#\ 8b	.	.
4F#\) 4B 4f#	.	(16dd#/LL	8b\	.	.
.	.	16ee/J	.	.	.
*Xped	*	*	*	*	*
.	.	8ff#/J	8a#\J 8dd#	.	.
=27	=27	=27	=27	=27	=27
*ped	*	*	*	*	*
(4C#\ 4F# 4A#	.	4ff#/	8g#\L 8a# 8cc#	.	pp
!	!	!LO:TX:b:i:t=rall.	!	!	!
.	.	.	8g#\ 8a# 8cc#	.	.
4F#\) 4A# 4e	.	4gg#/	8g#\ 8a# 8cc#	.	.
*Xped	*	*	*	*	*
!	!	!LO:TX:b:i:t=e morendo	!	!	!
.	.	.	8g#\J 8a# 8cc#	.	.
=28	=28	=28	=28	=28	=28
*ped	*	*	*	*	*
(4BBB/ 4FF# 4BB	.	[2ff#/)	8g#\L 8b	.	.
.	.	.	8g#\ 8b	.	.
4F#\) 4B 4d#	.	.	8g#\ 8b	.	.
.	.	.	8g#\J 8b	.	.
=29	=29	=29	=29	=29	=29
2BBB/ 2FF#	.	2ff#/]	2g#\ 2b	.	ppp
*Xped	*	*	*	*	*
*	*	*v	*v	*	*
==	==	==	==	==
*-	*-	*-	*-	*-
!!!system-decoration: {(s1,s2)}
!!!RDF**kern: < = below
!!!RDF**kern: > = above
!!!ENC: Filip Voros
!!!END: 2023-10-11
!!!EED: Marta Chmielewska
!!!EEV: 2023-10-23
